X:1
T:Ruebush, 87.87.77.87
T:Ruebush, 87.87.77.87
T:James Hott Ruebush, 1915
T:Public Domain Courtesy of the Cyber Hymnal™
C:James Hott Ruebush, 1915
Z:Public Domain
Z:Courtesy of the Cyber Hymnal™
%%score ( 1 2 ) ( 3 4 )
L:1/8
Q:1/4=110
M:4/4
K:Ab
V:1 treble 
V:2 treble 
V:3 bass 
V:4 bass 
V:1
 [A,C][B,D] | [CE]2 [CE]2 [DF]2 [CE]2 | [CE]2 [CA]4 [EA][EG] | [DF]2 [FA]2 [EG]2 [DF]2 | %4
 [CE]6 [CE][CE] | [DF]2 [EG]2 [FA]2 [DF]2 | [CE]2 [Ec]4 [Ec][Ec] | [=DB]2 [DF]2 [DB]2 [DF]2 | %8
 !fermata!B6 !fermata![DE][DE] | [Ec]2 [Fc]2 [Gc]2 [Ac]2 | [Gd]6 [Gd][Ad] | %11
 [Gd]2 [DF]2 [DG]2 [DF]2 | [CE]6 [CE][CE] | [CA]2 [Ec]2 [_Ge]2 [GA]2 | [FA]2 [Fd]4 [EG][DF] | %15
 [CE]2 [Ec]2 [DB]3 [DG] | [CA]6 |] %17
V:2
 x2 | x8 | x8 | x8 | x8 | x8 | x8 | x8 | (E2 =D2 _D2) x2 | x8 | x8 | x8 | x8 | x8 | x8 | x8 | x6 |] %17
V:3
 [A,,E,][A,,E,] | [A,,A,]2 [A,,A,]2 [A,,A,]2 [A,,A,]2 | [A,,A,]2 [A,,E,]4 [C,A,][C,A,] | %3
 [D,A,]2 [D,A,]2 [D,A,]2 [D,A,]2 | [A,,A,]6 [A,,A,][A,,A,] | [D,A,]2 [D,A,]2 [D,A,]2 [D,A,]2 | %6
 [A,,A,]2 [A,,A,]4 [A,,A,][A,,A,] | [B,,A,]2 [B,,A,]2 [B,,A,]2 [A,B,]2 | %8
 ([G,B,]2 [F,A,]2 !fermata![E,G,]2) [E,G,][E,G,] | [A,,A,]4 [A,,E,]4 | %10
 [B,,E,]2 [B,,E,]2 [E,B,]2 [E,B,][E,B,] | B,2 G,2 B,2 G,2 | %12
 ([A,,A,]2 [A,,A,]2 [A,,A,]2) [A,,A,][A,,A,] | [A,,E,]2 [A,,A,]2 [C,A,]2 [C,A,]2 | %14
 [D,A,]2 [D,A,]4 [D,A,][D,A,] | [E,A,]2 [E,A,]2 [E,G,]3 [E,B,] | [A,,A,]6 |] %17
V:4
 x2 | x8 | x8 | x8 | x8 | x8 | x8 | x8 | x8 | x8 | x8 | E,4 E,4 | x8 | x8 | x8 | x8 | x6 |] %17

